icons/svg/sim.svg

<svg xmlns="http://www.w3.org/2000/svg" version="1.1" baseProfile="full" width="24" height="24" viewBox="0 0 24.00 24.00" xml:space="preserve"><path fill="#000" fill-opacity="1" stroke-width=".2" stroke-linejoin="miter" d="M19.99 4c0-1.1-.89-2-1.99-2h-8L4 8v12c0 1.1.9 2 2 2h12.01c1.1 0 1.99-.9 1.99-2l-.01-16zM9 19H7v-2h2v2zm8 0h-2v-2h2v2zm-8-4H7v-4h2v4zm4 4h-2v-4h2v4zm0-6h-2v-2h2v2zm4 2h-2v-4h2v4z"/></svg>

﻿<?xml version="1.0" encoding="utf-8"?>
<!DOCTYPE svg PUBLIC "-//W3C//DTD SVG 1.1//EN" "http://www.w3.org/Graphics/SVG/1.1/DTD/svg11.dtd">
<svg xmlns="http://www.w3.org/2000/svg" xmlns:xlink="http://www.w3.org/1999/xlink" version="1.1" baseProfile="full" width="24" height="24" viewBox="0 0 24.00 24.00" enable-background="new 0 0 24.00 24.00" xml:space="preserve">
	<path fill="#000000" fill-opacity="1" stroke-width="0.2" stroke-linejoin="miter" d="M 19.9902,4C 19.9902,2.9 19.1,2 18,2L 10,2L 4,8L 4,20C 4,21.1 4.9,22 6,22L 18.0098,22C 19.11,22 20,21.1 20,20L 19.9902,4 Z M 9,19L 7,19L 7,17L 9,17L 9,19 Z M 17,19L 15,19L 15,17L 17,17L 17,19 Z M 9,15L 7,15L 7,11L 9,11L 9,15 Z M 13,19L 11,19L 11,15L 13,15L 13,19 Z M 13,13L 11,13L 11,11L 13,11L 13,13 Z M 17,15L 15,15L 15,11L 17,11L 17,15 Z "/>
</svg>
